X: 1
T: Ringlender etter Odin Oks\aas
O: Norway
S: printed MS labelled "Feletoneart: G-D-G" and "N.M.O. 8789"
M: 2/4
L: 1/16
K: F
|: "F"F>Acf a2f2 | "F"(3fef g>f "Bb"e2d2 ||1,3 "Gm"g2g2 "C7"g>fed | "F"d2c2- "C7"c>BAG \
                                         :|2,4 "Gm"g2gf "C7"ecde | "F"f2f2 f4 :|
K: C=B
|: "C"g2g2 ecGG | FGEG DGCe | "G7"f2f2 dBG2 ||1,3 "C"agec GECe :|2 "C"c2c2 c3e :|3 "C"c2c2 "C7"c>dc_B ||
K: F
|: "F"A2C2 F2C2 | A2C2 F3A | "C7"~A2GA B>ABc | "F"d2c2- "C7"c>dcB \
|  "F"A2C2 F2C2 | A2C2 F3A | "C7"~A2GA Bcde ||1 "F"f2f2 f>d"C7"cB :|2 "F"f2f2 f4 |]
